X: 2
T:When You And I Were Young Maggie
% Nottingham Music Database
S:via PR
M:2/4
L:1/4
K:G
[d/2f/2]|"G"[dg] [B/2d/2][A/2c/2]|"G7"[GB] [A/2c/2][G/2B/2]|"C"[G2c2]|[E/2G/2][Gc][E/2G/2]|"G"[DG] [G/2B/2][A/2c/2]|"Em"[Be] [d/2f/2][B/2e/2]|"Am"[A2c2]-|\
"D7"[A3/2c3/2][d/2f/2]|
"G"[dg] [B/2d/2][A/2c/2]|"G7"[GB] [A/2c/2][G/2B/2]|"C"[G2c2]|[E/2G/2][Gc][E/2G/2]|"G"[DG] [G/2B/2][B/2d/2]|"D7"[df] [A/2c/2][B/2d/2]|"G"[G2B2]-|[G3/2B3/2][e/2g/2]\
||
"C"[eg] [c/2e/2][e/2g/2]|[eg] [c/2e/2][e/2g/2]|"G"[d2g2]|[B/2d/2][dg][B/2d/2]|"D"[Ad] [df]|"A7"[d/2f/2][^c/2e/2] [f/2a/2][e/2g/2]|"D"[d2f2]-|\
"D7"[d3/2f3/2][d/2f/2]|
"G"[dg] [B/2d/2][A/2c/2]|"G7"[GB] [A/2c/2][G/2B/2]|"C"[G2c2]|[E/2G/2][Gc][E/2G/2]|"G"[D/2G/2][D/2G/2] [G/2B/2][B/2d/2]|"D7"[df] [A/2c/2][B/2d/2]|"G"[G2B2]-|\
[G3/2B3/2]||


